img/Linkedin.svg

<svg width="163" height="163" viewBox="0 0 163 163" fill="none" xmlns="http://www.w3.org/2000/svg">
<circle cx="81.5" cy="81.5" r="81.5" fill="#FFEAC0"/>
<path d="M76.6413 73.2733C76.6115 71.923 75.6477 70.8958 74.0829 70.8958C72.5183 70.8958 71.4961 71.923 71.4961 73.2733C71.4961 74.5939 72.4882 75.65 74.0233 75.65H74.0526C75.6476 75.65 76.6413 74.5939 76.6413 73.2733Z" fill="#F2F2F2"/>
<path d="M92.833 83.4009C92.833 79.174 90.5771 77.207 87.5676 77.207C85.1406 77.207 84.0534 78.5409 83.4457 79.4786V77.5297H78.8712C78.9313 78.821 78.8712 91.2918 78.8712 91.2918H83.4447V83.6062C83.4447 83.195 83.4744 82.7843 83.5952 82.4903C83.9259 81.6685 84.679 80.8178 85.9425 80.8178C87.5976 80.8178 88.2596 82.08 88.2596 83.9299V91.2918H92.833V83.4009Z" fill="#F2F2F2"/>
<path d="M76.3393 77.5307H71.7659V91.2919H76.3393V77.5307Z" fill="#F2F2F2"/>
<path d="M76.5339 71.6134H76.5341L76.5338 71.6024C76.5163 70.8089 76.2221 70.0848 75.6779 69.5587C75.1328 69.0317 74.3705 68.7358 73.4755 68.7358C72.5821 68.7358 71.8075 69.0307 71.2523 69.5545C70.6961 70.0792 70.3887 70.8075 70.3887 71.6134C70.3887 73.2218 71.6166 74.49 73.4159 74.49H73.4453C74.3557 74.49 75.1319 74.1866 75.6837 73.6579C76.2352 73.1294 76.5339 72.4024 76.5339 71.6134ZM92.2257 90.1318H92.7257V89.6318V81.7409C92.7257 79.5414 92.1379 77.8579 91.0892 76.72C90.0368 75.5781 88.5764 75.047 86.9603 75.047C85.6475 75.047 84.6692 75.4102 83.9325 75.9201C83.7113 76.0732 83.5143 76.2378 83.3383 76.4067V75.8698V75.3698H82.8383H78.2639H77.7401L77.7644 75.893C77.7937 76.5226 77.7939 79.9441 77.7864 83.2339C77.7826 84.8731 77.777 86.472 77.7723 87.6611C77.77 88.2557 77.7679 88.7478 77.7664 89.0912L77.7646 89.4891L77.7641 89.5937L77.7639 89.6204L77.7639 89.6272L77.7639 89.6289L77.7639 89.6293C77.7639 89.6294 77.7639 89.6294 78.2639 89.6318L77.7639 89.6294L77.7615 90.1318H78.2639H82.8374H83.3374V89.6318V81.9463C83.3374 81.5373 83.3704 81.215 83.4504 81.0204L83.4517 81.017C83.7346 80.3138 84.3425 79.6579 85.3352 79.6579C86.0153 79.6579 86.4315 79.9058 86.7011 80.3016C86.9924 80.7294 87.1522 81.3904 87.1522 82.27V89.6318V90.1318H87.6522H92.2257ZM71.1585 75.3708H70.6585V75.8708V89.6319V90.1319H71.1585H75.732H76.232V89.6319V75.8708V75.3708H75.732H71.1585ZM66.5483 70.1728C66.5483 67.1854 68.9955 64.7383 71.9829 64.7383H90.3989C93.3862 64.7383 95.8325 67.1853 95.8325 70.1728V88.5889C95.8325 91.5763 93.3863 94.0224 90.3989 94.0224H71.9829C68.9953 94.0224 66.5483 91.5761 66.5483 88.5889V70.1728Z" fill="#FDB92D" fill-opacity="0.8" stroke="#3F3D56"/>
<mask id="mask0" mask-type="alpha" maskUnits="userSpaceOnUse" x="103" y="30" width="25" height="25">
<circle cx="115.302" cy="42.3016" r="11.9016" fill="#C4C4C4" stroke="black" stroke-width="0.8"/>
</mask>
<g mask="url(#mask0)">
<path d="M104.341 55.2469C104.423 49.2648 109.385 44.4358 115.5 44.4358C121.615 44.4358 126.577 49.2648 126.658 55.2469H104.341Z" fill="#FDB92D" stroke="black" stroke-width="0.3"/>
</g>
<circle cx="115.5" cy="38.5" r="4.35" fill="#FDB92D" stroke="black" stroke-width="0.3"/>
<circle cx="115.5" cy="42.5" r="12.25" stroke="black" stroke-width="0.5"/>
<mask id="mask1" mask-type="alpha" maskUnits="userSpaceOnUse" x="19" y="60" width="25" height="25">
<circle cx="31.3016" cy="72.3016" r="11.9016" fill="#C4C4C4" stroke="black" stroke-width="0.8"/>
</mask>
<g mask="url(#mask1)">
<path d="M20.3415 85.2469C20.4232 79.2648 25.3852 74.4358 31.5 74.4358C37.6147 74.4358 42.5767 79.2648 42.6585 85.2469H20.3415Z" fill="#FDB92D" stroke="black" stroke-width="0.3"/>
</g>
<circle cx="31.5" cy="68.5" r="4.35" fill="#FDB92D" stroke="black" stroke-width="0.3"/>
<circle cx="31.5" cy="72.5" r="12.25" stroke="black" stroke-width="0.5"/>
<mask id="mask2" mask-type="alpha" maskUnits="userSpaceOnUse" x="93" y="111" width="25" height="25">
<circle cx="105.302" cy="123.302" r="11.9016" fill="#C4C4C4" stroke="black" stroke-width="0.8"/>
</mask>
<g mask="url(#mask2)">
<path d="M94.3415 136.247C94.4232 130.265 99.3852 125.436 105.5 125.436C111.615 125.436 116.577 130.265 116.658 136.247H94.3415Z" fill="#FDB92D" stroke="black" stroke-width="0.3"/>
</g>
<circle cx="105.5" cy="119.5" r="4.35" fill="#FDB92D" stroke="black" stroke-width="0.3"/>
<circle cx="105.5" cy="123.5" r="12.25" stroke="black" stroke-width="0.5"/>
</svg>

<svg width="163" height="163" fill="none" xmlns="http://www.w3.org/2000/svg"><circle cx="81.5" cy="81.5" r="81.5" fill="#FFEAC0"/><path d="M76.641 73.273c-.03-1.35-.993-2.377-2.558-2.377s-2.587 1.027-2.587 2.377c0 1.32.992 2.377 2.527 2.377h.03c1.595 0 2.588-1.056 2.588-2.377zM92.833 83.4c0-4.226-2.256-6.193-5.265-6.193-2.427 0-3.515 1.334-4.122 2.272v-1.95H78.87c.06 1.292 0 13.763 0 13.763h4.574v-7.686c0-.411.03-.822.15-1.116.33-.822 1.084-1.672 2.347-1.672 1.656 0 2.318 1.262 2.318 3.112v7.362h4.573V83.4zM76.34 77.53h-4.574v13.762h4.573V77.53z" fill="#F2F2F2"/><path d="M76.534 71.613h0v-.01c-.018-.794-.312-1.518-.856-2.044-.545-.527-1.307-.823-2.203-.823-.893 0-1.667.295-2.223.819-.556.524-.863 1.252-.863 2.058 0 1.609 1.228 2.877 3.027 2.877h.03c.91 0 1.686-.303 2.238-.832a2.8 2.8 0 00.85-2.045zm15.692 18.519h.5V81.74c0-2.2-.588-3.883-1.637-5.021-1.052-1.142-2.513-1.673-4.129-1.673-1.313 0-2.29.363-3.027.873a4.817 4.817 0 00-.595.487V75.37H77.74l.024.523c.03.63.03 4.051.022 7.34a2783.574 2783.574 0 01-.02 5.858l-.001.398v.105l-.001.026v.01h0l.5.003-.5-.003-.002.503h5.575v-8.186c0-.409.033-.731.113-.926l.002-.003c.283-.703.89-1.36 1.883-1.36.68 0 1.097.249 1.366.645.291.427.451 1.088.451 1.968v7.862h5.074zM71.159 75.37h-.5v14.76h5.573V75.37h-5.073zm-4.61-5.198c0-2.988 2.447-5.435 5.434-5.435h18.416c2.987 0 5.433 2.447 5.433 5.435v18.416c0 2.987-2.446 5.433-5.433 5.433H71.983c-2.988 0-5.435-2.446-5.435-5.433V70.173z" fill="#FDB92D" fill-opacity=".8" stroke="#3F3D56"/><mask id="mask0" maskUnits="userSpaceOnUse" x="103" y="30" width="25" height="25"><circle cx="115.302" cy="42.302" r="11.902" fill="#C4C4C4" stroke="#000" stroke-width=".8"/></mask><g mask="url(#mask0)"><path d="M104.341 55.247c.082-5.982 5.044-10.811 11.159-10.811 6.115 0 11.077 4.829 11.158 10.81h-22.317z" fill="#FDB92D" stroke="#000" stroke-width=".3"/></g><circle cx="115.5" cy="38.5" r="4.35" fill="#FDB92D" stroke="#000" stroke-width=".3"/><circle cx="115.5" cy="42.5" r="12.25" stroke="#000" stroke-width=".5"/><mask id="mask1" maskUnits="userSpaceOnUse" x="19" y="60" width="25" height="25"><circle cx="31.302" cy="72.302" r="11.902" fill="#C4C4C4" stroke="#000" stroke-width=".8"/></mask><g mask="url(#mask1)"><path d="M20.341 85.247c.082-5.982 5.044-10.811 11.159-10.811 6.115 0 11.077 4.829 11.158 10.81H20.341z" fill="#FDB92D" stroke="#000" stroke-width=".3"/></g><circle cx="31.5" cy="68.5" r="4.35" fill="#FDB92D" stroke="#000" stroke-width=".3"/><circle cx="31.5" cy="72.5" r="12.25" stroke="#000" stroke-width=".5"/><mask id="mask2" maskUnits="userSpaceOnUse" x="93" y="111" width="25" height="25"><circle cx="105.302" cy="123.302" r="11.902" fill="#C4C4C4" stroke="#000" stroke-width=".8"/></mask><g mask="url(#mask2)"><path d="M94.341 136.247c.082-5.982 5.044-10.811 11.159-10.811 6.115 0 11.077 4.829 11.158 10.811H94.341z" fill="#FDB92D" stroke="#000" stroke-width=".3"/></g><circle cx="105.5" cy="119.5" r="4.35" fill="#FDB92D" stroke="#000" stroke-width=".3"/><circle cx="105.5" cy="123.5" r="12.25" stroke="#000" stroke-width=".5"/></svg>
